X:1
T:Title
%%score { ( 1 4 ) | ( 2 3 ) }
L:1/8
M:6/8
K:G
V:1 treble nm="Grand Piano"
V:4 treble 
V:2 bass 
V:3 bass 
V:1
 z3 z2[Q:1/4=78] D | [DB]>BB [Ec]B_B | [DB]GE [B,D]2 G | [CG]FE [CF]2 c | [Ec]B_B =B2 D | %5
 [DB]>BB [Ec]B_B | [DB]GE D2 D | [Bd]>^cd edG | [DB]B>A .[B,G]3 | [Fd][FA]>[GB] [Fc]3 | %10
 cB>_B =B2 G | GFE FED | ccc B2 G | GFE FED | ccc B2 B |[M:13/16] d>^cded3/2G | %16
[M:23/32] z/4 z/4 z/ [FB]/4-[FB]/4-[FB]/4-[FB]/4-[FB]/4-[FB]/4-[FB]/-<[FB]/ z/4 z/4 z/4 z/4 z/4 z/4 z/4 z/ |] %17
V:2
 z3 z2 B, | z z/[K:treble] E/F z D^C | z B,C z2 B, | z CC z2 F | z D^C [G,D]2 B, | %5
 z z/[K:treble] E/F z D^C | z B,C [G,B,]2 B, | z z/[K:treble] _B/=B cBB, | z D>C .G,,3 | %9
 [D,A,][D,D]>[D,D] [D,A,]3 | [G,E][G,D]>[G,^C] [G,D]2 [G,B,D] | %11
 [D,A,C][D,A,C][D,A,C] [D,A,D][D,G,C][D,F,C] | [D,F,D][E,G,D][F,A,D] [G,D]2 [G,B,D] | %13
 [D,A,C][D,A,C][D,A,C] [D,A,C][D,G,C][D,F,C] | [D,F,D][E,G,D][F,A,D][K:treble] [G,D]2 [G,D] | %15
[M:13/16] [G,B,G]>[G,_B,G][G,=B,G][G,CG][G,B,G]3/2[K:bass][E,^C] | %16
[M:23/32] z/4 z/4 z/ [D,D]/4-[D,D]/4-[D,D]/4-[D,D]/4-[D,D]/4-[D,D]/4-[D,D]/-<[D,D]/ z/4 z/4 z/4 z/4 z/4 z/4 z/4 z/ |] %17
V:3
 x6 | G,,3[K:treble] G,3 | G,,3 G,3 | A,,3 D,3 | G,,3 z3 | G,,3[K:treble] G,3 | G,,3 z3 | %7
 G,6[K:treble] | D,6 | x6 | x6 | x6 | x6 | x6 | x3[K:treble] x3 |[M:13/16] x11/2[K:bass] x | %16
[M:23/32] (3:2:15[D,D]-[D,D]3/8-[D,D]/16 z z3/8 z/16 z z3/8 z/16 D,-D,3/8-D,/16 G,,2- G,,3/4-G,,/8 |] %17
V:4
 x6 | x6 | x6 | x6 | x6 | x6 | x6 | x6 | x6 | x6 | x6 | x6 | x6 | x6 | x6 |[M:13/16] x13/2 | %16
[M:23/32] (3:2:15[GB]-[GB]3/8-[GB]/16 z z3/8 z/16 z z3/8 z/16 [CDA]-[CDA]3/8-[CDA]/16 [B,DG]2- [B,DG]3/4-[B,DG]/8 |] %17

